svg/line/sanitizer.svg

<svg xmlns="http://www.w3.org/2000/svg" data-name="Layer 1" viewBox="0 0 24 24"><path d="M13,12a3,3,0,1,0,3,3A3.00328,3.00328,0,0,0,13,12Zm0,4a1,1,0,1,1,1-1A1.0013,1.0013,0,0,1,13,16Zm5.80029-8.3999L16,5.50012V3h1a1,1,0,0,0,0-2H8.65674A4.96656,4.96656,0,0,0,5.12158,2.46436L4.293,3.293A.99989.99989,0,1,0,5.707,4.707l.82861-.82861A3.022,3.022,0,0,1,8.65674,3H10V5.50006l-2.80078,2.1A3.01563,3.01563,0,0,0,6,10V22a1,1,0,0,0,1,1H19a1,1,0,0,0,1-1V10A3.01469,3.01469,0,0,0,18.80029,7.6001ZM12,3h2V5H12Zm6,18H8V10a1.00551,1.00551,0,0,1,.3999-.80029L11.3335,7h3.333l2.93311,2.19971A1.00457,1.00457,0,0,1,18,10Z"/></svg>

<svg xmlns="http://www.w3.org/2000/svg" data-name="Layer 1" viewBox="0 0 24 24"><path d="M13 12a3 3 0 1 0 3 3 3.003 3.003 0 0 0-3-3Zm0 4a1 1 0 1 1 1-1 1.001 1.001 0 0 1-1 1Zm5.8-8.4L16 5.5V3h1a1 1 0 0 0 0-2H8.657a4.967 4.967 0 0 0-3.535 1.464l-.829.829a1 1 0 1 0 1.414 1.414l.829-.829A3.022 3.022 0 0 1 8.656 3H10v2.5L7.2 7.6A3.016 3.016 0 0 0 6 10v12a1 1 0 0 0 1 1h12a1 1 0 0 0 1-1V10a3.015 3.015 0 0 0-1.2-2.4ZM12 3h2v2h-2Zm6 18H8V10a1.006 1.006 0 0 1 .4-.8L11.334 7h3.333L17.6 9.2a1.005 1.005 0 0 1 .4.8Z"/></svg>
